picto/horizontal-hyphen.svg

<svg class="color-immutable" width="12" height="24" viewBox="0 0 12 24" fill="none" xmlns="http://www.w3.org/2000/svg"><g clip-path="url(#a)"><path d="M0 22.5v-21C0 .675.675 0 1.5 0h9c.825 0 1.5.675 1.5 1.5v21c0 .825-.675 1.5-1.5 1.5h-9C.675 24 0 23.325 0 22.5Z" fill="#2D327D"/><path d="M10.5 12.75h-9V15h9v-2.25Z" fill="#fff"/></g><defs><clipPath id="a"><path fill="#fff" d="M0 0h12v24H0z"/></clipPath></defs></svg>

<svg class="color-immutable" width="12" height="24" viewBox="0 0 12 24" fill="none" xmlns="http://www.w3.org/2000/svg"><path d="M0 22.5V1.5C0 0.675 0.675 0 1.5 0H10.5C11.325 0 12 0.675 12 1.5V22.5C12 23.325 11.325 24 10.5 24H1.5C0.675 24 0 23.325 0 22.5Z" fill="#2D327D"/><path d="M10.5 12.75H1.5V15H10.5V12.75Z" fill="white"/></svg>
